X:83
T:Father Ahearn's* (reel) 
B:CRE2.186 (gan ainm)
F:file ID: cre.2/083fath_ah
S:Aggie Whyte (Galway)
C:? Paddy Kelly
Q:180
L:1/8
M:4/4
R:reel
K:G
dc|BGAF DG G2|ABcA defg|a2 ge f2fe|dfed (3cBA dc|
BGAF DG G2|ABcA defg|a2 ge f2fe|1 dcAF G2:|2 dcAF G3||
|:B|defg a2 fa|gfde dc A2|defg ad c2|fdfa g2gf|
defg a2 fa|gfde dcAG|(3FED (3EFG Agfe|dcAF G3:|

%%%

